X: 30302
T: Old Man Dillon
R: jig
M: 6/8
K: Adorian
EAA ABd|ege dBA|BGG GBA|GBA GED|
EAA ABd|e2d eag|edc Bcd|1 e^cA A2G:|2 e^cA A2a||
|:gef g2a|gef gdc|BGG DGG|Bdc BAG|
[1 gef g2a|gef ged|^cAA AB^c|dfe d2g:|
[2 EAA ABd|~e2d eag|edc Bcd|e^cA A2G||

